assets/svg/icon-ui-redpoint-wand-dark-gray.svg

<?xml version="1.0" encoding="UTF-8" standalone="no"?>
<svg width="29px" height="32px" viewBox="0 0 29 32" version="1.1" xmlns="http://www.w3.org/2000/svg" xmlns:xlink="http://www.w3.org/1999/xlink">
    <!-- Generator: Sketch 3.8.3 (29802) - http://www.bohemiancoding.com/sketch -->
    <title>dark gray/icon-ui-redpoint-wand-dark-gray</title>
    <desc>Created with Sketch.</desc>
    <defs></defs>
    <g id="gray" stroke="none" stroke-width="1" fill="none" fill-rule="evenodd">
        <g id="icons,-utility-(gray)" transform="translate(-675.000000, -897.000000)" fill="#242F36">
            <g id="dark-gray/icon-ui-redpoint-wand-dark-gray" transform="translate(675.000000, 897.000000)">
                <g id="Fill-146">
                    <g id="PaaS">
                        <g id="redpoint_v2.3_2015-11-13_Kris">
                            <g id="Features">
                                <g id="1">
                                    <path d="M27.6923077,28.3076923 C27.6923077,28.3076923 27.6140905,29.0012942 26.4615385,30.1538462 C25.8461538,30.7692308 25.2307692,30.7692308 24.5422807,30.8302779 C23.3846154,29.5384615 16.6419114,18.5833294 11.9989116,11.3268768 C12.339242,11.2335032 13.4173899,10.7180946 13.7400116,10.5117069 C14.0629552,10.3049973 15.0767076,9.56541071 15.3040239,9.29527146 C19.8593638,16.4138756 27.6923077,28.3076923 27.6923077,28.3076923 L27.6923077,28.3076923 Z M28.1166362,27.3814046 C28.1011813,27.3569343 12.6224271,3.1664305 12.6224271,3.1664305 L12.5953809,3.18381729 C11.7859291,2.29741279 10.2359287,2.20725904 8.95220372,3.02862406 C7.6681568,3.84998907 7.10083216,5.29534681 7.56705582,6.40166206 L7.58895029,6.41904885 C7.58895029,6.41904885 8.37747359,7.88308128 9.98736191,10.0895942 L9.98736191,10.0905601 C9.98736191,10.0908821 9.93874327,10.0912041 9.93874327,10.0915261 C14.2690209,16.8585306 23.0470978,30.6156702 23.0583671,30.6337009 C23.4740402,31.2831298 24.2081493,31.6218503 25.034022,31.6218503 C25.6454576,31.6218503 26.2945646,31.4363913 26.8911892,31.0545258 C28.2950118,30.1565301 28.839798,28.5115462 28.1166362,27.3814046 L28.1166362,27.3814046 Z M5.86783098,8.02724789 L4.2315405,7.78930639 L3.49968527,6.30659926 C3.30070308,5.90348322 2.97840343,5.90348322 2.77942124,6.30659926 L2.04756602,7.78930639 L0.411275532,8.02724789 C-0.0333756206,8.09164342 -0.132866719,8.39848814 0.18846699,8.71177239 L1.37302281,9.86606231 L1.09322422,11.4962352 C1.01755947,11.9389545 1.2780394,12.1282774 1.67568181,11.9193139 L3.13971424,11.1497873 L4.60310272,11.9193139 C5.00106711,12.1282774 5.26154704,11.9389545 5.18588229,11.4962352 L4.90640569,9.86606231 L6.09031755,8.71177239 C6.41229521,8.39848814 6.31248213,8.09164342 5.86783098,8.02724789 L5.86783098,8.02724789 Z M1.57773542,3.47907191 L1.38744662,4.58764101 C1.33593019,4.88869013 1.51333989,5.01748119 1.78380112,4.87548903 L2.77903408,4.35195335 L3.77458901,4.87548903 C4.04505025,5.01748119 4.22245994,4.88869013 4.17094352,4.58764101 L3.98065472,3.47907191 L4.78592085,2.69409038 C5.00486566,2.48061919 4.93725035,2.27229963 4.63459135,2.2281887 L3.52183654,2.06655591 L3.02373711,1.05812187 C2.88850649,0.784118879 2.66956167,0.784118879 2.53433105,1.05812187 L2.03687557,2.06655591 L0.923476809,2.2281887 C0.621139783,2.27229963 0.553524474,2.48061919 0.772469285,2.69409038 C0.772469285,2.69409038 0.553524474,2.48061919 0.772469285,2.69409038 L1.57773542,3.47907191 L1.57773542,3.47907191 Z" id="Fill-146"></path>
                                </g>
                            </g>
                        </g>
                    </g>
                </g>
            </g>
        </g>
    </g>
</svg>

<svg width="29" height="32" viewBox="0 0 29 32" xmlns="http://www.w3.org/2000/svg"><title>dark gray/icon-ui-redpoint-wand-dark-gray</title><path d="M27.692 28.308s-.078.693-1.23 1.846c-.616.615-1.231.615-1.92.676-1.157-1.292-7.9-12.247-12.543-19.503.34-.093 1.418-.609 1.741-.815.323-.207 1.337-.947 1.564-1.217 4.555 7.119 12.388 19.013 12.388 19.013zm.425-.927L12.622 3.166l-.027.018c-.81-.887-2.36-.977-3.643-.155-1.284.821-1.851 2.266-1.385 3.373l.022.017s.788 1.464 2.398 3.67v.002H9.94c4.33 6.768 13.108 20.525 13.12 20.543.415.65 1.15.988 1.975.988.611 0 1.26-.186 1.857-.567 1.404-.898 1.949-2.543 1.226-3.674zM5.867 8.027L4.233 7.79 3.5 6.307c-.2-.404-.522-.404-.72 0l-.732 1.482-1.637.238c-.444.065-.544.371-.223.685l1.185 1.154-.28 1.63c-.075.443.185.632.583.423l1.464-.77 1.463.77c.398.21.659.02.583-.423l-.28-1.63L6.09 8.712c.322-.314.222-.62-.222-.685zM1.578 3.48l-.19 1.109c-.051.3.126.43.397.287l.995-.523.996.523c.27.142.447.014.396-.287l-.19-1.109.805-.785c.219-.213.151-.422-.151-.466l-1.113-.161-.498-1.009c-.135-.274-.354-.274-.49 0l-.497 1.009-1.114.161c-.302.044-.37.253-.15.466 0 0-.22-.213 0 0l.805.785z" fill="#242F36" fill-rule="evenodd"/></svg>
